X:9
T:Polska efter Anders Fredrik Andersson
T:(SvL Småland 9)
R:Polska
O:Tryserum, Småland
S:Anders Fredrik Andersson
B:Svenska Låtar Småland
N:SvL: Jfr Nils Andersson, Skånska Melodier nr 332 och Bagge, 76 Polskor från Östergötland, nr 3.
M:3/4
L:1/8
K:G
dd cc BB|G/A/B/c/ de/f/ gg|dd/B/ cc/A/ Bd|d/c/A/F/ AG G2:|
|:d>f fd fa/f/|d>g gd gb/g/|d>f fd fa/f/|d>g gd gb/g/|
de/f/ g/a/g/f/ gf/e/|dB GB/d/ gg|dd/B/ cc/A/ Bd|d/c/A/F/ AG G2:|

